images/activities/Download_PDF_1.svg

<svg width="265" height="37" viewBox="0 0 265 37" fill="none" xmlns="http://www.w3.org/2000/svg">
<rect x="0.5" y="0.5" width="264" height="36" rx="3.5" stroke="#F3727C"/>
<path d="M21.6035 26H17.1149V11.4545H21.8024C23.2134 11.4545 24.4208 11.7457 25.4245 12.3281C26.4283 12.9058 27.1977 13.7367 27.7328 14.821C28.2678 15.9006 28.5353 17.1932 28.5353 18.6989C28.5353 20.214 28.2654 21.5185 27.7257 22.6122C27.1859 23.7012 26.3999 24.5393 25.3677 25.1264C24.3355 25.7088 23.0808 26 21.6035 26ZM18.8762 24.4375H21.4899C22.6925 24.4375 23.6892 24.2055 24.4799 23.7415C25.2707 23.2775 25.8601 22.617 26.2484 21.7599C26.6367 20.9029 26.8308 19.8826 26.8308 18.6989C26.8308 17.5246 26.639 16.5137 26.2555 15.6662C25.872 14.8139 25.2991 14.1605 24.5368 13.706C23.7744 13.2467 22.8251 13.017 21.6887 13.017H18.8762V24.4375ZM35.6944 26.2273C34.7096 26.2273 33.8455 25.9929 33.1021 25.5241C32.3635 25.0554 31.7858 24.3996 31.3691 23.5568C30.9572 22.714 30.7512 21.7292 30.7512 20.6023C30.7512 19.4659 30.9572 18.474 31.3691 17.6264C31.7858 16.7789 32.3635 16.1207 33.1021 15.652C33.8455 15.1832 34.7096 14.9489 35.6944 14.9489C36.6793 14.9489 37.541 15.1832 38.2797 15.652C39.023 16.1207 39.6007 16.7789 40.0126 17.6264C40.4293 18.474 40.6376 19.4659 40.6376 20.6023C40.6376 21.7292 40.4293 22.714 40.0126 23.5568C39.6007 24.3996 39.023 25.0554 38.2797 25.5241C37.541 25.9929 36.6793 26.2273 35.6944 26.2273ZM35.6944 24.7216C36.4425 24.7216 37.0581 24.5298 37.541 24.1463C38.024 23.7628 38.3815 23.2585 38.6135 22.6335C38.8455 22.0085 38.9615 21.3314 38.9615 20.6023C38.9615 19.8731 38.8455 19.1937 38.6135 18.5639C38.3815 17.9342 38.024 17.4252 37.541 17.0369C37.0581 16.6487 36.4425 16.4545 35.6944 16.4545C34.9463 16.4545 34.3308 16.6487 33.8478 17.0369C33.3649 17.4252 33.0074 17.9342 32.7754 18.5639C32.5434 19.1937 32.4274 19.8731 32.4274 20.6023C32.4274 21.3314 32.5434 22.0085 32.7754 22.6335C33.0074 23.2585 33.3649 23.7628 33.8478 24.1463C34.3308 24.5298 34.9463 24.7216 35.6944 24.7216ZM45.2967 26L41.9728 15.0909H43.7342L46.0922 23.4432H46.2058L48.5353 15.0909H50.3251L52.6262 23.4148H52.7399L55.0978 15.0909H56.8592L53.5353 26H51.8876L49.5012 17.6193H49.3308L46.9444 26H45.2967ZM60.7512 19.4375V26H59.0751V15.0909H60.6944V16.7955H60.8365C61.0922 16.2415 61.4804 15.7964 62.0012 15.4602C62.5221 15.1193 63.1944 14.9489 64.0183 14.9489C64.7569 14.9489 65.4032 15.1004 65.9572 15.4034C66.5112 15.7017 66.9421 16.1562 67.2498 16.767C67.5576 17.3731 67.7115 18.1402 67.7115 19.0682V26H66.0353V19.1818C66.0353 18.3248 65.8128 17.6572 65.3677 17.179C64.9226 16.696 64.3118 16.4545 63.5353 16.4545C63.0003 16.4545 62.5221 16.5705 62.1007 16.8026C61.684 17.0346 61.3549 17.3731 61.1135 17.8182C60.872 18.2633 60.7512 18.803 60.7512 19.4375ZM72.4505 11.4545V26H70.7743V11.4545H72.4505ZM79.9522 26.2273C78.9674 26.2273 78.1033 25.9929 77.3599 25.5241C76.6213 25.0554 76.0436 24.3996 75.627 23.5568C75.215 22.714 75.0091 21.7292 75.0091 20.6023C75.0091 19.4659 75.215 18.474 75.627 17.6264C76.0436 16.7789 76.6213 16.1207 77.3599 15.652C78.1033 15.1832 78.9674 14.9489 79.9522 14.9489C80.9371 14.9489 81.7988 15.1832 82.5375 15.652C83.2808 16.1207 83.8585 16.7789 84.2704 17.6264C84.6871 18.474 84.8954 19.4659 84.8954 20.6023C84.8954 21.7292 84.6871 22.714 84.2704 23.5568C83.8585 24.3996 83.2808 25.0554 82.5375 25.5241C81.7988 25.9929 80.9371 26.2273 79.9522 26.2273ZM79.9522 24.7216C80.7003 24.7216 81.3159 24.5298 81.7988 24.1463C82.2818 23.7628 82.6393 23.2585 82.8713 22.6335C83.1033 22.0085 83.2193 21.3314 83.2193 20.6023C83.2193 19.8731 83.1033 19.1937 82.8713 18.5639C82.6393 17.9342 82.2818 17.4252 81.7988 17.0369C81.3159 16.6487 80.7003 16.4545 79.9522 16.4545C79.2041 16.4545 78.5886 16.6487 78.1056 17.0369C77.6227 17.4252 77.2652 17.9342 77.0332 18.5639C76.8012 19.1937 76.6852 19.8731 76.6852 20.6023C76.6852 21.3314 76.8012 22.0085 77.0332 22.6335C77.2652 23.2585 77.6227 23.7628 78.1056 24.1463C78.5886 24.5298 79.2041 24.7216 79.9522 24.7216ZM90.6642 26.2557C89.973 26.2557 89.3456 26.1255 88.7821 25.8651C88.2187 25.5999 87.7712 25.2188 87.4398 24.7216C87.1084 24.2197 86.9426 23.6136 86.9426 22.9034C86.9426 22.2784 87.0658 21.7718 87.312 21.3835C87.5582 20.9905 87.8873 20.6828 88.2992 20.4602C88.7111 20.2377 89.1657 20.072 89.6628 19.9631C90.1647 19.8494 90.669 19.7595 91.1756 19.6932C91.8385 19.608 92.3759 19.544 92.7878 19.5014C93.2045 19.4541 93.5075 19.3759 93.6969 19.267C93.891 19.1581 93.9881 18.9687 93.9881 18.6989V18.642C93.9881 17.9413 93.7963 17.3968 93.4128 17.0085C93.034 16.6203 92.4587 16.4261 91.687 16.4261C90.8868 16.4261 90.2594 16.6013 89.8049 16.9517C89.3503 17.3021 89.0307 17.6761 88.8461 18.0739L87.2551 17.5057C87.5392 16.8428 87.918 16.3267 88.3915 15.9574C88.8697 15.5833 89.3906 15.3229 89.954 15.1761C90.5222 15.0246 91.0809 14.9489 91.6301 14.9489C91.9805 14.9489 92.383 14.9915 92.8375 15.0767C93.2968 15.1572 93.7395 15.3253 94.1657 15.581C94.5965 15.8366 94.954 16.2225 95.2381 16.7386C95.5222 17.2547 95.6642 17.946 95.6642 18.8125V26H93.9881V24.5227H93.9029C93.7892 24.7595 93.5998 25.0128 93.3347 25.2827C93.0695 25.5526 92.7168 25.7822 92.2765 25.9716C91.8361 26.161 91.2987 26.2557 90.6642 26.2557ZM90.9199 24.75C91.5828 24.75 92.1415 24.6198 92.5961 24.3594C93.0553 24.099 93.401 23.7628 93.633 23.3509C93.8697 22.9389 93.9881 22.5057 93.9881 22.0511V20.517C93.9171 20.6023 93.7608 20.6804 93.5194 20.7514C93.2826 20.8177 93.008 20.8769 92.6955 20.929C92.3877 20.9763 92.0871 21.0189 91.7935 21.0568C91.5047 21.09 91.2703 21.1184 91.0904 21.142C90.6548 21.1989 90.2476 21.2912 89.8688 21.419C89.4947 21.5421 89.1917 21.7292 88.9597 21.9801C88.7324 22.2263 88.6188 22.5625 88.6188 22.9886C88.6188 23.571 88.8342 24.0114 89.2651 24.3097C89.7007 24.6032 90.2523 24.75 90.9199 24.75ZM102.843 26.2273C101.934 26.2273 101.131 25.9976 100.435 25.5384C99.7392 25.0743 99.1947 24.4209 98.8017 23.5781C98.4087 22.7306 98.2122 21.7292 98.2122 20.5739C98.2122 19.428 98.4087 18.4337 98.8017 17.5909C99.1947 16.7481 99.7415 16.0971 100.442 15.6378C101.143 15.1785 101.953 14.9489 102.871 14.9489C103.581 14.9489 104.143 15.0672 104.555 15.304C104.971 15.536 105.288 15.8011 105.506 16.0994C105.729 16.393 105.902 16.6345 106.025 16.8239H106.167V11.4545H107.843V26H106.224V24.3239H106.025C105.902 24.5227 105.726 24.7737 105.499 25.0767C105.272 25.375 104.948 25.6425 104.526 25.8793C104.105 26.1113 103.544 26.2273 102.843 26.2273ZM103.07 24.7216C103.742 24.7216 104.311 24.5464 104.775 24.196C105.239 23.8409 105.591 23.3509 105.833 22.7259C106.074 22.0961 106.195 21.3693 106.195 20.5455C106.195 19.7311 106.077 19.0185 105.84 18.4077C105.603 17.7921 105.253 17.3139 104.789 16.973C104.325 16.6274 103.752 16.4545 103.07 16.4545C102.36 16.4545 101.768 16.6368 101.295 17.0014C100.826 17.3613 100.473 17.8513 100.236 18.4716C100.004 19.0871 99.8883 19.7784 99.8883 20.5455C99.8883 21.322 100.007 22.0275 100.243 22.6619C100.485 23.2917 100.84 23.7936 101.309 24.1676C101.782 24.5369 102.369 24.7216 103.07 24.7216ZM117.594 26H115.748L121.089 11.4545H122.907L128.248 26H126.401L122.055 13.7557H121.941L117.594 26ZM118.276 20.3182H125.719V21.8807H118.276V20.3182ZM134.718 26.2273C133.695 26.2273 132.814 25.9858 132.076 25.5028C131.337 25.0199 130.769 24.3546 130.371 23.5071C129.974 22.6596 129.775 21.6913 129.775 20.6023C129.775 19.4943 129.978 18.5166 130.385 17.669C130.797 16.8168 131.37 16.1515 132.104 15.6733C132.843 15.1903 133.705 14.9489 134.689 14.9489C135.456 14.9489 136.148 15.0909 136.763 15.375C137.379 15.6591 137.883 16.0568 138.276 16.5682C138.669 17.0795 138.913 17.6761 139.008 18.358H137.331C137.204 17.8608 136.92 17.4205 136.479 17.0369C136.044 16.6487 135.456 16.4545 134.718 16.4545C134.064 16.4545 133.492 16.625 132.999 16.9659C132.511 17.3021 132.13 17.7779 131.856 18.3935C131.586 19.0043 131.451 19.7216 131.451 20.5455C131.451 21.3883 131.583 22.1222 131.849 22.7472C132.118 23.3722 132.497 23.8575 132.985 24.2031C133.477 24.5488 134.055 24.7216 134.718 24.7216C135.153 24.7216 135.549 24.6458 135.904 24.4943C136.259 24.3428 136.56 24.125 136.806 23.8409C137.052 23.5568 137.227 23.2159 137.331 22.8182H139.008C138.913 23.4621 138.679 24.0421 138.305 24.5582C137.935 25.0696 137.445 25.4768 136.834 25.7798C136.228 26.0781 135.523 26.2273 134.718 26.2273ZM146.202 15.0909V16.5114H140.549V15.0909H146.202ZM142.197 12.4773H143.873V22.875C143.873 23.3485 143.941 23.7036 144.079 23.9403C144.221 24.1723 144.401 24.3286 144.618 24.4091C144.841 24.4848 145.075 24.5227 145.322 24.5227C145.506 24.5227 145.658 24.5133 145.776 24.4943C145.894 24.4706 145.989 24.4517 146.06 24.4375L146.401 25.9432C146.287 25.9858 146.129 26.0284 145.925 26.071C145.722 26.1184 145.464 26.142 145.151 26.142C144.678 26.142 144.214 26.0402 143.759 25.8366C143.309 25.633 142.935 25.3229 142.637 24.9062C142.343 24.4896 142.197 23.964 142.197 23.3295V12.4773ZM148.724 26V15.0909H150.4V26H148.724ZM149.576 13.2727C149.249 13.2727 148.967 13.1615 148.731 12.9389C148.499 12.7164 148.383 12.4489 148.383 12.1364C148.383 11.8239 148.499 11.5563 148.731 11.3338C148.967 11.1113 149.249 11 149.576 11C149.903 11 150.182 11.1113 150.414 11.3338C150.651 11.5563 150.769 11.8239 150.769 12.1364C150.769 12.4489 150.651 12.7164 150.414 12.9389C150.182 13.1615 149.903 13.2727 149.576 13.2727ZM162.39 15.0909L158.356 26H156.651L152.617 15.0909H154.436L157.447 23.7841H157.561L160.572 15.0909H162.39ZM164.602 26V15.0909H166.279V26H164.602ZM165.455 13.2727C165.128 13.2727 164.846 13.1615 164.61 12.9389C164.378 12.7164 164.262 12.4489 164.262 12.1364C164.262 11.8239 164.378 11.5563 164.61 11.3338C164.846 11.1113 165.128 11 165.455 11C165.781 11 166.061 11.1113 166.293 11.3338C166.53 11.5563 166.648 11.8239 166.648 12.1364C166.648 12.4489 166.53 12.7164 166.293 12.9389C166.061 13.1615 165.781 13.2727 165.455 13.2727ZM174.093 15.0909V16.5114H168.439V15.0909H174.093ZM170.087 12.4773H171.763V22.875C171.763 23.3485 171.832 23.7036 171.969 23.9403C172.111 24.1723 172.291 24.3286 172.509 24.4091C172.732 24.4848 172.966 24.5227 173.212 24.5227C173.397 24.5227 173.548 24.5133 173.667 24.4943C173.785 24.4706 173.88 24.4517 173.951 24.4375L174.292 25.9432C174.178 25.9858 174.019 26.0284 173.816 26.071C173.612 26.1184 173.354 26.142 173.042 26.142C172.568 26.142 172.104 26.0402 171.65 25.8366C171.2 25.633 170.826 25.3229 170.528 24.9062C170.234 24.4896 170.087 23.964 170.087 23.3295V12.4773ZM177.694 30.0909C177.41 30.0909 177.156 30.0672 176.934 30.0199C176.711 29.9773 176.557 29.9347 176.472 29.892L176.898 28.4148C177.305 28.5189 177.665 28.5568 177.978 28.5284C178.29 28.5 178.567 28.3603 178.809 28.1094C179.055 27.8632 179.28 27.4631 179.483 26.9091L179.796 26.0568L175.762 15.0909H177.58L180.591 23.7841H180.705L183.716 15.0909H185.535L180.904 27.5909C180.696 28.1544 180.438 28.6207 180.13 28.9901C179.822 29.3641 179.465 29.6411 179.057 29.821C178.655 30.0009 178.2 30.0909 177.694 30.0909ZM193.599 26V11.4545H198.514C199.655 11.4545 200.588 11.6605 201.312 12.0724C202.041 12.4796 202.581 13.0312 202.932 13.7273C203.282 14.4233 203.457 15.1998 203.457 16.0568C203.457 16.9138 203.282 17.6927 202.932 18.3935C202.586 19.0942 202.051 19.6529 201.327 20.0696C200.602 20.4815 199.674 20.6875 198.542 20.6875H195.02V19.125H198.486C199.267 19.125 199.894 18.9901 200.368 18.7202C200.841 18.4503 201.184 18.0857 201.398 17.6264C201.615 17.1624 201.724 16.6392 201.724 16.0568C201.724 15.4744 201.615 14.9536 201.398 14.4943C201.184 14.035 200.839 13.6752 200.361 13.4148C199.882 13.1496 199.248 13.017 198.457 13.017H195.361V26H193.599ZM210.783 26H206.295V11.4545H210.982C212.393 11.4545 213.6 11.7457 214.604 12.3281C215.608 12.9058 216.377 13.7367 216.912 14.821C217.448 15.9006 217.715 17.1932 217.715 18.6989C217.715 20.214 217.445 21.5185 216.905 22.6122C216.366 23.7012 215.58 24.5393 214.547 25.1264C213.515 25.7088 212.26 26 210.783 26ZM208.056 24.4375H210.67C211.872 24.4375 212.869 24.2055 213.66 23.7415C214.45 23.2775 215.04 22.617 215.428 21.7599C215.816 20.9029 216.01 19.8826 216.01 18.6989C216.01 17.5246 215.819 16.5137 215.435 15.6662C215.052 14.8139 214.479 14.1605 213.716 13.706C212.954 13.2467 212.005 13.017 210.868 13.017H208.056V24.4375ZM220.67 26V11.4545H229.391V13.017H222.431V17.9318H228.738V19.4943H222.431V26H220.67Z" fill="#F3727C"/>
<path d="M237.448 21.8633C237.201 21.8633 237 22.0647 237 22.3116V23.2081C237 24.4435 238.006 25.4495 239.241 25.4495H247.759C248.994 25.4495 250 24.4435 250 23.2081V22.3116C250 22.0646 249.799 21.8633 249.552 21.8633C249.305 21.8633 249.103 22.0647 249.103 22.3116V23.2081C249.103 23.9497 248.5 24.5529 247.759 24.5529H239.241C238.5 24.5529 237.897 23.9497 237.897 23.2081V22.3116C237.897 22.0646 237.695 21.8633 237.448 21.8633Z" fill="#F3727C"/>
<path d="M243.5 12C243.253 12 243.052 12.2014 243.052 12.4483V20.1075L240.938 17.994C240.837 17.8933 240.701 17.8346 240.563 17.8346C240.476 17.8346 240.398 17.8591 240.332 17.9038C240.217 17.9843 240.151 18.1008 240.137 18.2356C240.126 18.3678 240.173 18.4983 240.267 18.592L242.427 20.7458C242.714 21.0303 243.093 21.1871 243.496 21.1871C243.9 21.1871 244.281 21.0303 244.565 20.7458L246.728 18.5893C246.823 18.4948 246.869 18.3652 246.858 18.233C246.846 18.0964 246.779 17.9817 246.662 17.9012C246.494 17.7821 246.227 17.8224 246.057 17.9905L243.944 20.104L243.945 12.4484C243.945 12.2015 243.744 12.0001 243.497 12.0001L243.5 12Z" fill="#F3727C"/>
</svg>

<svg xmlns="http://www.w3.org/2000/svg" width="265" height="37" fill="none" viewBox="0 0 265 37"><rect width="264" height="36" x=".5" y=".5" stroke="#f3727c" rx="3.5"/><path fill="#f3727c" d="M21.6 26h-4.49V11.45h4.7q2.1 0 3.61.88 1.5.86 2.31 2.5.8 1.6.8 3.87t-.8 3.91a5.8 5.8 0 0 1-2.36 2.52 7.6 7.6 0 0 1-3.77.87m-2.72-1.56h2.61q1.8 0 2.99-.7a4.3 4.3 0 0 0 1.77-1.98q.58-1.29.58-3.06t-.57-3.03a4.2 4.2 0 0 0-1.72-1.96 5.4 5.4 0 0 0-2.85-.7h-2.81zm16.81 1.79q-1.47 0-2.59-.7a5 5 0 0 1-1.73-1.97 7 7 0 0 1-.62-2.96q0-1.7.62-2.97.63-1.27 1.73-1.98 1.12-.7 2.6-.7 1.47 0 2.58.7a4.7 4.7 0 0 1 1.73 1.98q.63 1.27.63 2.97 0 1.69-.63 2.96-.61 1.27-1.73 1.96-1.1.7-2.59.7m0-1.5q1.13 0 1.85-.58a3.4 3.4 0 0 0 1.07-1.52q.36-.93.35-2.03 0-1.09-.35-2.04a3.4 3.4 0 0 0-1.07-1.52 3 3 0 0 0-1.85-.59q-1.11 0-1.84.59t-1.07 1.52q-.36.94-.35 2.04 0 1.09.35 2.03a3.4 3.4 0 0 0 1.07 1.52q.72.57 1.84.57M45.3 26l-3.32-10.9h1.76l2.36 8.34h.12l2.33-8.35h1.79l2.3 8.32h.11l2.36-8.32h1.76L53.54 26h-1.65l-2.39-8.38h-.17L46.94 26zm15.46-6.56V26h-1.67V15.1h1.61v1.7h.15q.38-.84 1.16-1.34.79-.51 2.02-.51 1.1 0 1.94.45.82.45 1.29 1.37.45.9.46 2.3V26h-1.67v-6.82q0-1.28-.67-2a2.4 2.4 0 0 0-1.83-.73q-.81 0-1.44.35t-.99 1.02-.36 1.62m11.7-7.99V26h-1.68V11.45zm7.5 14.78q-1.47 0-2.59-.7a5 5 0 0 1-1.73-1.97A7 7 0 0 1 75 20.6q0-1.7.62-2.97t1.73-1.98q1.1-.7 2.6-.7 1.47 0 2.58.7a4.7 4.7 0 0 1 1.73 1.98q.63 1.27.63 2.97 0 1.69-.63 2.96-.62 1.27-1.73 1.96-1.1.7-2.59.7m0-1.5q1.13 0 1.85-.58a3.4 3.4 0 0 0 1.07-1.52q.35-.93.35-2.03t-.35-2.04a3.4 3.4 0 0 0-1.07-1.52 3 3 0 0 0-1.85-.59q-1.12 0-1.84.59-.73.59-1.08 1.52-.34.94-.34 2.04 0 1.09.34 2.03a3.4 3.4 0 0 0 1.08 1.52q.72.57 1.84.57m10.71 1.53q-1.03 0-1.88-.4a3 3 0 0 1-1.34-1.14q-.5-.75-.5-1.82 0-.93.37-1.52t.99-.92 1.36-.5 1.52-.27l1.6-.19q.63-.07.92-.23t.29-.57v-.06q0-1.05-.58-1.63-.57-.58-1.72-.58-1.2 0-1.89.52a3 3 0 0 0-.95 1.12l-1.6-.56a3.8 3.8 0 0 1 2.7-2.33 6.5 6.5 0 0 1 2.89-.1q.69.12 1.33.5t1.07 1.16q.42.77.42 2.07V26H94v-1.48h-.09q-.16.36-.57.76-.39.4-1.05.7-.66.28-1.62.28m.26-1.51q.99 0 1.68-.4a2.7 2.7 0 0 0 1.39-2.3v-1.53q-.1.12-.47.23-.36.1-.82.18l-1.61.21q-.66.09-1.22.28a2 2 0 0 0-.91.56q-.34.37-.34 1 0 .89.65 1.33t1.65.44m11.92 1.48a4.3 4.3 0 0 1-4.04-2.65 7 7 0 0 1-.59-3 7 7 0 0 1 .6-2.99q.58-1.27 1.63-1.95 1.05-.7 2.43-.7 1.06 0 1.69.36t.95.8q.34.44.52.72h.14v-5.37h1.67V26h-1.62v-1.68h-.2q-.19.3-.52.76-.34.45-.97.8-.64.35-1.69.35m.23-1.5q1 0 1.7-.53a3.3 3.3 0 0 0 1.06-1.47q.36-.95.36-2.18a6 6 0 0 0-.35-2.14 2.8 2.8 0 0 0-2.77-1.95q-1.06 0-1.78.54-.7.54-1.05 1.47t-.35 2.08q0 1.16.35 2.11.37.94 1.07 1.5t1.76.56M117.59 26h-1.84l5.34-14.55h1.82L128.25 26h-1.85l-4.34-12.24h-.12zm.69-5.68h7.44v1.56h-7.44zm16.44 5.9q-1.54 0-2.64-.72a4.7 4.7 0 0 1-1.7-2q-.6-1.26-.6-2.9 0-1.65.6-2.93.63-1.28 1.72-2 1.1-.72 2.59-.72 1.16 0 2.07.43.92.42 1.52 1.19.58.75.73 1.79h-1.68a2.6 2.6 0 0 0-2.61-1.9q-.99 0-1.72.5-.74.51-1.14 1.43t-.4 2.16q0 1.26.39 2.2.4.93 1.14 1.45t1.73.52a3 3 0 0 0 1.18-.23 2.5 2.5 0 0 0 1.43-1.67h1.68a3.9 3.9 0 0 1-2.18 2.96q-.9.45-2.11.45M146.2 15.1v1.42h-5.65V15.1zm-4-2.61h1.67v10.4q0 .7.2 1.06.22.35.55.47.33.1.7.11.28 0 .46-.03l.28-.05.34 1.5a3 3 0 0 1-1.25.2q-.7 0-1.4-.3-.66-.3-1.11-.93-.44-.63-.44-1.58zM148.72 26V15.1h1.68V26zm.86-12.73q-.5 0-.85-.33a1 1 0 0 1-.35-.8q0-.47.35-.8.36-.34.85-.34.48 0 .83.33.36.35.36.8 0 .48-.36.8-.34.34-.83.34m12.81 1.82L158.36 26h-1.7l-4.04-10.9h1.82l3 8.68h.12l3.01-8.69zM164.6 26V15.1h1.68V26zm.86-12.73q-.5 0-.85-.33a1 1 0 0 1-.35-.8q0-.47.35-.8.36-.34.84-.34.5 0 .84.33.36.35.36.8 0 .48-.36.8-.34.34-.83.34m8.63 1.82v1.42h-5.65V15.1zm-4-2.61h1.67v10.4q0 .7.2 1.06.22.35.55.47.33.1.7.11.28 0 .46-.03l.28-.05.34 1.5a4 4 0 0 1-1.25.2q-.71 0-1.39-.3t-1.12-.93-.44-1.58zm7.6 17.61a4 4 0 0 1-1.22-.2l.43-1.48q.6.16 1.08.12.47-.05.83-.42.37-.37.67-1.2l.32-.85-4.04-10.97h1.82l3.01 8.7h.12l3-8.7h1.82l-4.63 12.5q-.3.84-.77 1.4-.45.56-1.07.83-.6.27-1.37.27M193.6 26V11.45h4.92q1.72 0 2.8.62 1.1.61 1.62 1.66.53 1.05.53 2.33t-.53 2.33-1.6 1.68q-1.1.62-2.79.62h-3.52v-1.57h3.47q1.17 0 1.88-.4.7-.4 1.03-1.1.33-.69.32-1.56 0-.87-.32-1.57a2.3 2.3 0 0 0-1.04-1.08 4 4 0 0 0-1.9-.4h-3.1V26zm17.2 0h-4.5V11.45h4.7q2.1 0 3.61.88 1.5.86 2.31 2.5.8 1.6.8 3.87t-.8 3.91a5.8 5.8 0 0 1-2.36 2.52 7.6 7.6 0 0 1-3.77.87m-2.73-1.56h2.61q1.8 0 2.99-.7a4.3 4.3 0 0 0 1.77-1.98q.58-1.29.58-3.06a7 7 0 0 0-.57-3.03 4.2 4.2 0 0 0-1.72-1.96 5.4 5.4 0 0 0-2.85-.7h-2.81zM220.67 26V11.45h8.72v1.57h-6.96v4.91h6.3v1.56h-6.3V26zM237.45 21.86c-.25 0-.45.2-.45.45v.9c0 1.23 1 2.24 2.24 2.24h8.52c1.23 0 2.24-1 2.24-2.24v-.9a.45.45 0 0 0-.9 0v.9c0 .74-.6 1.34-1.34 1.34h-8.52c-.74 0-1.34-.6-1.34-1.34v-.9c0-.25-.2-.45-.45-.45M243.5 12c-.25 0-.45.2-.45.45v7.66l-2.11-2.12a.5.5 0 0 0-.38-.16.4.4 0 0 0-.23.07.45.45 0 0 0-.06.69l2.16 2.16a1.5 1.5 0 0 0 2.13 0l2.17-2.16a.45.45 0 0 0-.07-.69c-.17-.12-.43-.08-.6.1l-2.12 2.1v-7.65c0-.25-.2-.45-.44-.45"/></svg>
